raw/symbols/algo.svg

<svg width="42" height="42" viewBox="0 0 42 42" fill="none" xmlns="http://www.w3.org/2000/svg">
<path d="M21 41C32.0457 41 41 32.0457 41 21C41 9.9543 32.0457 1 21 1C9.9543 1 1 9.9543 1 21C1 32.0457 9.9543 41 21 41Z" fill="#F3F3F3"/>
<path d="M21.5 11L11 30H14L22.5 14.5L24 19L17.5 30H20.5L25 22.5L27 30H30L27 19L28.5 16H26L24.5 11H21.5Z" fill="#030303"/>
</svg>

<svg xmlns="http://www.w3.org/2000/svg" width="42" height="42" fill="none"><path fill="#F3F3F3" d="M21 41c11.046 0 20-8.954 20-20S32.046 1 21 1 1 9.954 1 21s8.954 20 20 20Z"/><path fill="#030303" d="M21.5 11 11 30h3l8.5-15.5L24 19l-6.5 11h3l4.5-7.5 2 7.5h3l-3-11 1.5-3H26l-1.5-5h-3Z"/></svg>
